storage/app/icons/phosphoricons/bold/chat-text-bold.svg

<svg xmlns="http://www.w3.org/2000/svg" fill="currentColor" viewBox="0 0 256 256"><path d="M216 44H40a20 20 0 0 0-20 20v160a19.82 19.82 0 0 0 11.56 18.1 20.1 20.1 0 0 0 8.49 1.9 19.9 19.9 0 0 0 12.82-4.72l.12-.11L84.47 212H216a20 20 0 0 0 20-20V64a20 20 0 0 0-20-20m-4 144H80a11.93 11.93 0 0 0-7.84 2.92L44 215.23V68h168ZM84 108a12 12 0 0 1 12-12h64a12 12 0 1 1 0 24H96a12 12 0 0 1-12-12m0 40a12 12 0 0 1 12-12h64a12 12 0 0 1 0 24H96a12 12 0 0 1-12-12"/></svg>

<svg xmlns="http://www.w3.org/2000/svg" viewBox="0 0 256 256" fill="currentColor"><path d="M216,44H40A20,20,0,0,0,20,64V224A19.82,19.82,0,0,0,31.56,242.1a20.14,20.14,0,0,0,8.49,1.9,19.91,19.91,0,0,0,12.82-4.72l.12-.11L84.47,212H216a20,20,0,0,0,20-20V64A20,20,0,0,0,216,44Zm-4,144H80a11.93,11.93,0,0,0-7.84,2.92L44,215.23V68H212ZM84,108A12,12,0,0,1,96,96h64a12,12,0,1,1,0,24H96A12,12,0,0,1,84,108Zm0,40a12,12,0,0,1,12-12h64a12,12,0,0,1,0,24H96A12,12,0,0,1,84,148Z"/></svg>
